packages/dnb-ui-lib/assets/icons/loan_out.svg

<svg width="17" height="16" viewBox="0 0 17 16" fill="none" xmlns="http://www.w3.org/2000/svg">
<path d="M15.75 13.5001H14.75M0.75 13.5001H1.75M9.25 5.83341H7.25C6.97386 5.83341 6.75 6.05727 6.75 6.33341V13.5001M1.75 13.5001V3.66675C1.75 3.39061 1.97386 3.16675 2.25 3.16675H4.25C4.52614 3.16675 4.75 3.39061 4.75 3.66675V13.5001M1.75 13.5001H4.75M4.75 13.5001H6.75M6.75 13.5001H9.75M9.75 13.5001H11.75M9.75 13.5001V12.5M11.75 13.5001H14.75M11.75 13.5001V12.5M14.75 13.5001V12.5M10.5833 8.33341H15.5833M13.9167 10.0001L15.5833 8.33341M15.5833 8.33341L13.9167 6.66675" stroke="black" stroke-width="1.5" stroke-linecap="round" stroke-linejoin="round"/>
</svg>

<svg width="16" height="16" viewBox="0 0 17 16" fill="none" xmlns="http://www.w3.org/2000/svg"><path d="M15.75 13.5h-1m-14 0h1m7.5-7.667h-2a.5.5 0 00-.5.5V13.5m-5 0V3.667a.5.5 0 01.5-.5h2a.5.5 0 01.5.5V13.5m-3 0h3m0 0h2m0 0h3m0 0h2m-2 0v-1m2 1h3m-3 0v-1m3 1v-1m-4.167-4.167h5M13.917 10l1.666-1.667m0 0l-1.666-1.666" stroke="#000" stroke-width="1.5" stroke-linecap="round" stroke-linejoin="round"/></svg>
